packages/core/src/svgs/tokens/mono/LUFC.svg

<svg width="24" height="24" viewBox="0 0 24 24" fill="none" xmlns="http://www.w3.org/2000/svg">
<path fill-rule="evenodd" clip-rule="evenodd" d="M12 22C14.6522 22 17.1957 20.9464 19.071 19.071C20.9464 17.1957 22 14.6522 22 12C22 9.34785 20.9464 6.80429 19.071 4.92892C17.1957 3.05357 14.6522 2 12 2C9.34785 2 6.80429 3.05357 4.92892 4.92892C3.05357 6.80429 2 9.34785 2 12C2 14.6522 3.05357 17.1957 4.92892 19.071C6.80429 20.9464 9.34785 22 12 22ZM12 21.6117C13.2622 21.6117 14.5121 21.3631 15.6782 20.8801C16.8444 20.397 17.904 19.689 18.7965 18.7965C19.689 17.904 20.397 16.8444 20.8801 15.6782C21.3631 14.5121 21.6117 13.2622 21.6117 12C21.6117 10.7377 21.3631 9.48785 20.8801 8.32172C20.397 7.15558 19.689 6.09598 18.7965 5.20344C17.904 4.31092 16.8444 3.60292 15.6782 3.11988C14.5121 2.63685 13.2622 2.38822 12 2.38822C9.45079 2.38822 7.006 3.40089 5.20344 5.20344C3.40089 7.006 2.38822 9.45079 2.38822 12C2.38822 14.5491 3.40089 16.9939 5.20344 18.7965C7.006 20.599 9.45079 21.6117 12 21.6117Z" fill="white"/>
<path d="M6.70565 9.67656C6.70565 10.5295 6.69976 15.4237 11.9998 18.4707C17.2998 15.4237 17.2939 10.5295 17.2939 9.67656V9.64718C17.2939 8.90598 17.2056 7.9707 17.0645 7.64716C15.9175 6.07069 13.2115 5.58247 11.9998 5.5354C10.788 5.58247 8.08211 6.06481 6.93506 7.65305C6.76318 8.30328 6.68592 8.97488 6.70565 9.64718V9.67656Z" fill="white"/>
<path d="M10.8232 10.2351H13.1762V17.2938H10.8232V10.2351Z" fill="white"/>
<path d="M11.1699 10.5173H12.8875V17.2114H11.1699V10.5173Z" fill="white"/>
<path d="M9.25295 10.6115L8.21177 11.8468L7.74707 11.4762L8.78824 10.2352L9.25295 10.6115ZM14.7705 10.6115L15.7588 11.8468L16.2235 11.4762L15.2353 10.2352L14.7705 10.6115ZM11.1001 14.4821L9.94123 15.8233L9.50585 15.441L10.8235 14.0587L11.1001 14.4821ZM12.8707 14.4821L14 15.8174L14.353 15.5292L13.1765 14.0587L12.8707 14.4821ZM11.0412 10.6057L8.5706 13.5175L8.1059 13.141L10.5764 10.2292L11.0471 10.6057H11.0412ZM12.9294 10.6057L15.4 13.5175L15.8706 13.141L13.3823 10.2352L12.9235 10.6115L12.9294 10.6057ZM11.1706 12.441L9.08237 14.8351L8.62354 14.4586L10.8235 11.9998L11.1706 12.441ZM12.8823 12.588L14.8941 14.841L15.347 14.4527L13.1765 11.9998L12.8823 12.588Z" fill="white"/>
<path d="M7.88184 10.2351H16.1172V10.8232H7.88184V10.2351Z" fill="white"/>
<path fill-rule="evenodd" clip-rule="evenodd" d="M12.053 7.26468L12.0118 7.07056L11.9766 7.26468C11.4354 7.28233 10.9824 7.63526 10.8295 8.11762L10.5884 8.08821L10.8061 8.20585C10.7499 8.43665 10.7635 8.67892 10.8452 8.90197C10.9268 9.12501 11.0729 9.31887 11.2649 9.45873L11.1296 9.7294L11.3589 9.51762C11.5564 9.63813 11.7835 9.70195 12.0149 9.70195C12.2463 9.70195 12.4732 9.63813 12.6707 9.51762L12.9002 9.7294L12.7648 9.45873C12.9573 9.31791 13.1036 9.12304 13.1852 8.89897C13.2669 8.6749 13.2802 8.43164 13.2237 8.19997L13.4414 8.08232L13.206 8.11762C13.1257 7.87362 12.9717 7.66055 12.7652 7.50777C12.5587 7.355 12.3098 7.27007 12.053 7.26468ZM12.053 7.26468C12.0276 7.26404 12.0021 7.26404 11.9766 7.26468L11.7943 8.24115L10.8236 8.11762L10.8002 8.19997L11.6531 8.65291L11.259 9.45873L11.353 9.51762L12.0061 8.90585L12.6649 9.51762L12.7589 9.45873L12.3649 8.65291L13.2178 8.19997C13.2178 8.17056 13.206 8.14114 13.1943 8.11762L12.2295 8.24115L12.0473 7.26468H12.053Z" fill="white"/>
<path d="M12.4587 8.52936C12.4587 8.77642 12.2528 8.97641 11.9999 8.97641C11.9403 8.97719 11.8813 8.96624 11.8261 8.94419C11.7708 8.92215 11.7204 8.88943 11.6779 8.84792C11.6352 8.8064 11.6011 8.75691 11.5777 8.70224C11.5542 8.64759 11.5417 8.58884 11.541 8.52936C11.541 8.27641 11.7469 8.07642 11.9999 8.07642C12.2528 8.07642 12.4587 8.27641 12.4587 8.52936Z" fill="white"/>
<path fill-rule="evenodd" clip-rule="evenodd" d="M11.9993 16.9411C9.55221 15.3057 7.88164 12.6351 7.88164 9.67634C7.8824 9.19405 7.91778 8.71243 7.98752 8.23518C8.52051 7.72261 9.16472 7.34011 9.86982 7.11754C10.6758 6.84694 11.4993 6.7293 11.9993 6.70578C12.4993 6.7293 13.3229 6.84694 14.1287 7.11754C14.8339 7.34011 15.4781 7.72261 16.011 8.23518L16.064 8.61753C16.0993 8.97048 16.117 9.32346 16.117 9.67634V9.68224C16.117 10.4057 15.9816 14.2705 11.9993 16.947V16.9411ZM17.2934 9.67634C17.2934 10.5292 17.2993 15.4235 11.9993 18.4705C6.6934 15.4235 6.70518 10.5292 6.70518 9.67634C6.70518 9.04106 6.66988 8.23518 6.93459 7.64107C8.08164 6.06459 10.7875 5.57636 11.9993 5.5293C13.211 5.57636 15.917 6.05872 17.064 7.64695C17.3287 8.23518 17.2934 9.04106 17.2934 9.67634Z" fill="white"/>
<path d="M12.264 13.988H12.4464C12.5229 13.988 12.5875 13.9351 12.5875 13.8703C12.5875 13.8116 12.5288 13.7645 12.4464 13.7645L12.1641 13.7704C11.9287 13.7821 11.7699 13.8057 11.67 13.841C11.6213 13.8555 11.5768 13.8817 11.5406 13.9174C11.5053 13.9586 11.4935 14.0175 11.5229 14.0645C11.5524 14.1233 11.6405 14.1469 11.6994 14.1233C11.7184 14.1185 11.7359 14.1089 11.7503 14.0956C11.7647 14.0823 11.7754 14.0655 11.7817 14.0468L11.9287 14.0116L11.87 14.0821C11.7935 14.1763 11.6994 14.2586 11.6111 14.3057C11.5524 14.3351 11.5347 14.3881 11.5581 14.4409C11.5876 14.488 11.6523 14.5175 11.7171 14.5057L11.923 14.4704L11.8406 14.541C11.764 14.5998 11.6464 14.7116 11.5347 14.7175C11.4582 14.7234 11.4052 14.7762 11.417 14.841C11.417 14.8997 11.4876 14.9468 11.564 14.9409C11.6523 14.935 11.7405 14.8938 11.817 14.8527C12.0269 14.7122 12.2186 14.5463 12.3876 14.3585C12.401 14.3419 12.4083 14.3212 12.4083 14.2998C12.4083 14.2784 12.401 14.2577 12.3876 14.2409C12.3701 14.2198 12.3472 14.2036 12.3214 14.1943C12.2955 14.1849 12.2676 14.1829 12.2406 14.1881L12.0934 14.2115L12.264 13.988ZM11.9287 14.9998C12.1405 14.9174 12.3582 14.935 12.4994 14.9821C12.57 15.0057 12.6053 15.0703 12.5759 15.1351C12.5464 15.1939 12.464 15.2232 12.3935 15.1998C12.2811 15.1668 12.1608 15.1732 12.0523 15.2175C11.9287 15.2644 11.7817 15.388 11.6994 15.6645C11.6817 15.7351 11.7346 15.8174 11.8288 15.8586C11.8759 15.8763 11.9287 15.8821 11.9758 15.8704C12.0474 15.8513 12.1113 15.8102 12.1582 15.7528C12.2112 15.7057 12.2993 15.6939 12.3582 15.7351C12.4228 15.7762 12.4346 15.8527 12.3876 15.9057C12.2876 16.0115 12.1758 16.0763 12.0523 16.1057C11.9363 16.1315 11.8152 16.1212 11.7053 16.0763C11.5112 15.9939 11.37 15.8056 11.4229 15.6115C11.5229 15.2821 11.7112 15.094 11.9287 14.9998ZM12.4935 11.4527C12.5129 11.477 12.5218 11.5079 12.5185 11.5386C12.5152 11.5695 12.4998 11.5978 12.4758 11.6174L12.264 11.788C12.1876 11.8586 12.1229 11.9291 12.0877 12.0057C12.0522 12.0822 12.0406 12.1704 12.0053 12.2469C12.0523 12.2997 12.1111 12.3351 12.1641 12.3527H12.264C12.3129 12.3299 12.3539 12.2931 12.3817 12.2469C12.4171 12.188 12.4876 12.1821 12.5406 12.2174C12.5934 12.2585 12.5993 12.3292 12.5641 12.3821C12.5101 12.4607 12.4345 12.5221 12.3464 12.5586C12.2694 12.5885 12.1848 12.5926 12.1052 12.5704C12.0104 12.5423 11.9236 12.4919 11.8523 12.4233C11.7699 12.4821 11.67 12.4998 11.5817 12.5527C11.5684 12.5608 11.5535 12.566 11.5381 12.5681C11.5226 12.5701 11.5068 12.5689 11.4918 12.5643C11.4769 12.56 11.463 12.5524 11.4512 12.5424C11.4393 12.5322 11.4297 12.5197 11.4229 12.5056C11.41 12.479 11.4077 12.4484 11.4165 12.42C11.4251 12.3915 11.4442 12.3675 11.47 12.3527L11.5581 12.3115C11.6405 12.2763 11.7583 12.2469 11.7994 12.1527C11.8406 12.0704 11.8464 11.9821 11.8875 11.9057C11.9464 11.788 12.0347 11.688 12.117 11.6115L12.3347 11.435C12.3817 11.3997 12.4523 11.4056 12.4935 11.4527ZM11.7523 12.8409C11.6876 12.8645 11.6111 12.8409 11.5758 12.7822C11.5524 12.7233 11.5817 12.6527 11.6523 12.6291C11.7271 12.5995 11.8071 12.5855 11.8875 12.588C11.9287 12.588 11.9935 12.6057 12.0406 12.6468C12.0877 12.6939 12.0993 12.7527 12.0993 12.8115C12.0867 12.8873 12.0542 12.9583 12.0053 13.0174C11.9171 13.1351 11.8052 13.2527 11.7228 13.3703C11.6876 13.4292 11.6759 13.4586 11.6759 13.4763C11.6759 13.5115 11.7112 13.5233 11.7464 13.5293C11.9538 13.2771 12.1501 13.0162 12.3347 12.7469C12.3759 12.688 12.4523 12.6703 12.5229 12.7057C12.5818 12.7351 12.6052 12.8056 12.57 12.8586C12.464 13.0292 12.317 13.2174 12.1876 13.388C12.2146 13.4373 12.2504 13.4812 12.2935 13.5174L12.3052 13.5056C12.3464 13.4469 12.4228 13.4351 12.4876 13.4704C12.5464 13.5056 12.5641 13.5762 12.5229 13.6292C12.4986 13.6638 12.467 13.6927 12.4305 13.7141C12.394 13.7354 12.3532 13.7486 12.3111 13.7527C12.236 13.7559 12.1626 13.7306 12.1052 13.6822C12.0726 13.6562 12.0429 13.6267 12.017 13.5939L11.9112 13.7174C11.887 13.7446 11.8532 13.7615 11.817 13.7645C11.7364 13.7689 11.656 13.7548 11.5817 13.7233C11.4935 13.6822 11.4111 13.5998 11.4111 13.4763C11.417 13.3973 11.4457 13.3217 11.4935 13.2586C11.5758 13.1292 11.6935 13.0233 11.7876 12.8939L11.8288 12.8233C11.8027 12.8264 11.7771 12.8323 11.7523 12.8409Z" fill="white"/>
</svg>

<svg xmlns="http://www.w3.org/2000/svg" width="24" height="24" fill="none" viewBox="0 0 24 24">
    <path fill="#fff" fill-rule="evenodd" d="M12 22a10 10 0 1 0 0-20 10 10 0 0 0 0 20m0-.388a9.612 9.612 0 1 0 0-19.224 9.612 9.612 0 0 0 0 19.224" clip-rule="evenodd"/>
    <path fill="#fff" d="M6.706 9.677c0 .853-.006 5.747 5.294 8.794 5.3-3.047 5.294-7.941 5.294-8.794v-.03c0-.741-.088-1.676-.23-2C15.918 6.071 13.212 5.582 12 5.535c-1.212.047-3.918.53-5.065 2.118a7 7 0 0 0-.23 1.994z"/>
    <path fill="#fff" d="M10.823 10.235h2.353v7.059h-2.353z"/>
    <path fill="#fff" d="M11.17 10.517h1.717v6.694H11.17z"/>
    <path fill="#fff" d="m9.253 10.612-1.041 1.235-.465-.37 1.041-1.242zm5.518 0 .988 1.235.465-.37-.989-1.242zm-3.67 3.87-1.16 1.341-.435-.382 1.317-1.382zm1.77 0L14 15.817l.353-.288-1.176-1.47zm-1.83-3.876-2.47 2.912-.465-.377 2.47-2.912.471.377zm1.888 0 2.471 2.912.47-.377-2.488-2.906-.458.377zm-1.758 1.835-2.089 2.394-.458-.376 2.2-2.46zm1.711.147 2.012 2.253.453-.388L13.177 12z"/>
    <path fill="#fff" d="M7.882 10.235h8.235v.588H7.882z"/>
    <path fill="#fff" fill-rule="evenodd" d="m12.053 7.265-.041-.194-.035.194a1.24 1.24 0 0 0-1.148.853l-.24-.03.217.118a1.2 1.2 0 0 0 .459 1.253l-.135.27.229-.211a1.26 1.26 0 0 0 1.312 0l.23.211-.136-.27a1.2 1.2 0 0 0 .459-1.259l.217-.118-.235.036a1.24 1.24 0 0 0-1.153-.853m0 0h-.076l-.183.976-.97-.123-.024.082.853.453-.394.806.094.059.653-.612.659.612.094-.06-.394-.805.853-.453a.2.2 0 0 0-.024-.082l-.965.123-.182-.976z" clip-rule="evenodd"/>
    <path fill="#fff" d="M12.459 8.53a.453.453 0 0 1-.46.446.45.45 0 0 1-.458-.447c0-.253.206-.453.459-.453s.459.2.459.453"/>
    <path fill="#fff" fill-rule="evenodd" d="M12 16.941c-2.448-1.635-4.118-4.306-4.118-7.265q0-.724.106-1.44A4.8 4.8 0 0 1 9.87 7.117 8.4 8.4 0 0 1 12 6.706a8.4 8.4 0 0 1 2.129.412c.705.222 1.35.605 1.882 1.117l.053.383q.053.528.053 1.058v.006c0 .724-.135 4.589-4.118 7.265zm5.293-7.265c0 .853.006 5.748-5.294 8.795-5.306-3.047-5.294-7.942-5.294-8.795 0-.635-.035-1.44.23-2.035 1.147-1.576 3.853-2.065 5.064-2.112 1.212.047 3.918.53 5.065 2.118.265.588.23 1.394.23 2.03" clip-rule="evenodd"/>
    <path fill="#fff" d="M12.264 13.988h.182c.077 0 .142-.053.142-.118 0-.058-.06-.105-.142-.105l-.282.005a2 2 0 0 0-.494.071.3.3 0 0 0-.13.076c-.035.042-.046.1-.017.148.03.058.117.082.176.058a.12.12 0 0 0 .083-.076l.147-.035-.059.07a.9.9 0 0 1-.259.224c-.059.03-.076.082-.053.135a.16.16 0 0 0 .16.065l.205-.036-.082.071c-.077.059-.195.17-.306.176-.077.006-.13.06-.118.124 0 .059.07.106.147.1a.7.7 0 0 0 .253-.088q.316-.211.57-.495a.09.09 0 0 0 0-.117.15.15 0 0 0-.146-.053l-.148.023zM11.929 15a.87.87 0 0 1 .57-.018c.071.024.106.088.077.153-.03.059-.112.088-.183.065a.52.52 0 0 0-.34.018c-.124.046-.271.17-.354.447-.017.07.036.152.13.194.047.017.1.023.147.011a.35.35 0 0 0 .182-.117c.053-.047.141-.06.2-.018.065.041.077.118.03.17a.67.67 0 0 1-.336.2.6.6 0 0 1-.347-.029c-.194-.082-.335-.27-.282-.465.1-.329.288-.517.506-.611m.564-3.547a.12.12 0 0 1-.017.164l-.212.171a.7.7 0 0 0-.176.218c-.036.076-.047.164-.083.24a.4.4 0 0 0 .16.107h.099a.27.27 0 0 0 .118-.106c.035-.059.106-.065.159-.03a.12.12 0 0 1 .023.165.5.5 0 0 1-.218.177.4.4 0 0 1-.24.011.6.6 0 0 1-.254-.147c-.082.06-.182.077-.27.13a.11.11 0 0 1-.09.011.11.11 0 0 1-.07-.058.117.117 0 0 1 .048-.153l.088-.041c.082-.036.2-.065.241-.16.042-.082.047-.17.088-.246.06-.118.148-.218.23-.295l.218-.176a.12.12 0 0 1 .158.018m-.74 1.388a.15.15 0 0 1-.177-.059.116.116 0 0 1 .076-.153.6.6 0 0 1 .236-.041c.04 0 .105.018.153.059a.22.22 0 0 1 .058.165.44.44 0 0 1-.094.205c-.088.118-.2.236-.282.353-.035.06-.047.089-.047.106 0 .035.035.047.07.053q.312-.378.589-.782c.04-.059.117-.077.188-.041.059.03.082.1.047.153-.106.17-.253.358-.382.529q.04.075.105.13l.012-.012c.041-.06.118-.07.183-.036.058.036.076.106.035.16a.3.3 0 0 1-.212.123.3.3 0 0 1-.206-.07.6.6 0 0 1-.088-.09l-.106.124a.14.14 0 0 1-.094.047.5.5 0 0 1-.235-.04c-.089-.042-.17-.124-.17-.248a.4.4 0 0 1 .081-.217c.083-.13.2-.236.295-.365l.04-.07a.4.4 0 0 0-.076.017"/>
</svg>
